svgs/duotone/toilets-portable.svg

<svg xmlns="http://www.w3.org/2000/svg" viewBox="0 0 576 512"><!--! Font Awesome Pro 6.6.0 by @fontawesome - https://fontawesome.com License - https://fontawesome.com/license (Commercial License) Copyright 2024 Fonticons, Inc. --><defs><style>.fa-secondary{opacity:.4}</style></defs><path class="fa-secondary" d="M0 64L0 88 0 488c0 13.3 10.7 24 24 24s24-10.7 24-24l0-8 160 0 0 8c0 13.3 10.7 24 24 24s24-10.7 24-24l0-400 0-24-24 0L24 64 0 64zM176 240c0-8.8 7.2-16 16-16s16 7.2 16 16l0 64c0 8.8-7.2 16-16 16s-16-7.2-16-16l0-64zM320 64l0 24 0 400c0 13.3 10.7 24 24 24s24-10.7 24-24l0-8 160 0 0 8c0 13.3 10.7 24 24 24s24-10.7 24-24l0-400 0-24-24 0-8 0L352 64l-8 0-24 0zM496 240c0-8.8 7.2-16 16-16s16 7.2 16 16l0 64c0 8.8-7.2 16-16 16s-16-7.2-16-16l0-64z"/><path class="fa-primary" d="M32 0C14.3 0 0 14.3 0 32L0 64l256 0 0-32c0-17.7-14.3-32-32-32L32 0zM352 0c-17.7 0-32 14.3-32 32l0 32 256 0 0-32c0-17.7-14.3-32-32-32L352 0zM192 224c-8.8 0-16 7.2-16 16l0 64c0 8.8 7.2 16 16 16s16-7.2 16-16l0-64c0-8.8-7.2-16-16-16zm336 16c0-8.8-7.2-16-16-16s-16 7.2-16 16l0 64c0 8.8 7.2 16 16 16s16-7.2 16-16l0-64z"/></svg>

<svg xmlns="http://www.w3.org/2000/svg" viewBox="0 0 576 512"><!--! Font Awesome Pro 6.4.0 by @fontawesome - https://fontawesome.com License - https://fontawesome.com/license (Commercial License) Copyright 2023 Fonticons, Inc. --><defs><style>.fa-secondary{opacity:.4}</style></defs><path class="fa-primary" d="M32 0C14.3 0 0 14.3 0 32V64H256V32c0-17.7-14.3-32-32-32H32zM352 0c-17.7 0-32 14.3-32 32V64H576V32c0-17.7-14.3-32-32-32H352zM192 224c-8.8 0-16 7.2-16 16v64c0 8.8 7.2 16 16 16s16-7.2 16-16V240c0-8.8-7.2-16-16-16zm336 16c0-8.8-7.2-16-16-16s-16 7.2-16 16v64c0 8.8 7.2 16 16 16s16-7.2 16-16V240z"/><path class="fa-secondary" d="M24 64H0V88 488c0 13.3 10.7 24 24 24s24-10.7 24-24v-8H208v8c0 13.3 10.7 24 24 24s24-10.7 24-24V88 64H232 24zM192 224c8.8 0 16 7.2 16 16v64c0 8.8-7.2 16-16 16s-16-7.2-16-16V240c0-8.8 7.2-16 16-16zM344 64H320V88 488c0 13.3 10.7 24 24 24s24-10.7 24-24v-8H528v8c0 13.3 10.7 24 24 24s24-10.7 24-24V88 64H552h-8H352h-8zM512 224c8.8 0 16 7.2 16 16v64c0 8.8-7.2 16-16 16s-16-7.2-16-16V240c0-8.8 7.2-16 16-16z"/></svg>
